symbolic/64x64/apps/dino.svg

<svg xmlns="http://www.w3.org/2000/svg" width="64" height="64" version="1">
 <path style="opacity:0.2;fill-rule:evenodd" d="m 57.790272,59.868 c 0,0 2.742,-4.981622 2.117118,-6.047108 -0.549348,-0.936596 -5.592356,-0.707108 -5.592356,-0.707108 0,0 4.26911,-5.177338 3.592966,-6.330122 C 57.242318,45.648744 50,45.011338 50,45.011338 c 0,0 7.905492,-2.64279 8.132,-3.942 0.237694,-1.361604 -7.080266,-6.282086 -7.080266,-6.282086 0,0 5.433974,-9.058964 4.924266,-10.267684 -0.639792,-1.516768 -8.375404,-1.50846 -8.375404,-1.50846 0,0 3.42556,-10.972595 2.014808,-11.86577 -1.185324,-0.750137 -14.313482,3.321921 -14.313482,3.321921 0,0 -3.933816,-9.4559209 -6.124186,-9.4559209 -2.20421,0 -6.860796,9.4696119 -6.860796,9.4696119 0,0 -7.930522,-6.2731185 -9.361759,-5.459612 -1.26533,0.719104 -0.694362,10.992734 -0.694362,10.992734 z"/>
 <path style="opacity:0.2" d="m 28.191406,19.398613 c -4.234238,0 -8.084722,0.254392 -11.371094,1.01953 -7.1764451,0.415028 -12.7890621,13.97667 -12.8203121,15.972656 0.0052,3.242964 0.8402638,6.407496 2.3945312,9.074218 3.8816449,8.008546 12.0811489,13.535158 21.5781249,13.535158 4.43184,0 8.570818,-1.223874 12.132812,-3.320314 6.845984,2.430798 18.073064,6.223978 18.929688,5.125 0.987824,-1.267436 -5.851332,-11.810248 -8.960938,-16.46875 1.207358,-2.862026 1.875,-6.007214 1.875,-9.308594 0,-13.240366 -10.517444,-15.628904 -23.757812,-15.628904 z"/>
 <path style="fill:#455a64;fill-rule:evenodd" d="m 57.790272,58.868663 c 0,0 2.742,-4.981622 2.117118,-6.047108 -0.549348,-0.936596 -5.592356,-0.707108 -5.592356,-0.707108 0,0 4.26911,-5.177338 3.592966,-6.330122 C 57.242318,44.649407 50,44.012001 50,44.012001 c 0,0 7.905492,-2.64279 8.132,-3.942 0.237694,-1.361604 -7.080266,-6.282086 -7.080266,-6.282086 0,0 5.433974,-9.058964 4.924266,-10.267684 -0.639792,-1.516768 -8.375404,-1.50846 -8.375404,-1.50846 0,0 3.42556,-10.972595 2.014808,-11.86577 -1.185324,-0.7501367 -14.313482,3.321921 -14.313482,3.321921 0,0 -3.933816,-9.4559209 -6.124186,-9.4559209 -2.20421,0 -6.860796,9.4696119 -6.860796,9.4696119 0,0 -7.930522,-6.2731185 -9.361759,-5.4596121 -1.26533,0.7191038 -0.694362,10.9927341 -0.694362,10.9927341 z"/>
 <path style="fill:#ffffff;fill-rule:evenodd;opacity:0.1" d="M 29.177734 4.0117188 C 26.973524 4.0117188 22.316406 13.482422 22.316406 13.482422 C 22.316406 13.482422 14.386315 7.207978 12.955078 8.0214844 C 12.270404 8.4105939 12.133329 11.538154 12.142578 14.380859 C 12.173428 11.857019 12.355018 9.3625062 12.955078 9.0214844 C 14.386315 8.207978 22.316406 14.480469 22.316406 14.480469 C 22.316406 14.480469 26.973524 5.0117188 29.177734 5.0117188 C 31.368104 5.0117188 35.302734 14.466797 35.302734 14.466797 C 35.302734 14.466797 48.42991 10.396347 49.615234 11.146484 C 49.788728 11.256327 49.887116 11.520915 49.929688 11.896484 C 49.987697 10.997171 49.915281 10.33645 49.615234 10.146484 C 48.42991 9.3963477 35.302734 13.46875 35.302734 13.46875 C 35.302734 13.46875 31.368104 4.0117188 29.177734 4.0117188 z M 47.896484 22.017578 C 47.779367 22.408818 47.601562 23.011719 47.601562 23.011719 C 47.601562 23.011719 54.859294 23.007121 55.880859 24.390625 C 55.995971 23.993247 56.044203 23.679934 55.976562 23.519531 C 55.37554 22.094674 48.726014 22.021922 47.896484 22.017578 z M 51.46875 34.076172 C 51.3233 34.322577 51.050781 34.787109 51.050781 34.787109 C 51.050781 34.787109 56.690839 38.578727 57.90625 40.425781 C 58.023987 40.300332 58.113824 40.179226 58.132812 40.070312 C 58.348751 38.833333 52.572538 34.82992 51.46875 34.076172 z M 52.082031 44.255859 C 50.936884 44.681417 50 45.011719 50 45.011719 C 50 45.011719 56.964026 45.626488 57.849609 46.722656 C 57.987119 46.319998 58.027335 45.988269 57.908203 45.785156 C 57.469962 45.038001 54.278064 44.531852 52.082031 44.255859 z M 55.111328 52.09375 C 54.656456 52.686559 54.314453 53.113281 54.314453 53.113281 C 54.314453 53.113281 59.358855 52.883716 59.908203 53.820312 C 59.910085 53.823521 59.910288 53.828752 59.912109 53.832031 C 59.997209 53.401511 60.02822 53.026906 59.908203 52.822266 C 59.496192 52.119819 56.555425 52.073109 55.111328 52.09375 z"/>
 <g transform="matrix(2,0,0,2,-1.3045501e-7,0.01200092)">
  <path style="fill:#80cbc4" d="m 14.095703,9.1933594 c -2.117119,0 -4.042361,0.1271965 -5.6855468,0.5097656 C 4.8219335,9.9106394 2,17 2,17.689453 c 0.0026,1.621482 0.4201319,3.203748 1.1972656,4.537109 1.9408227,4.004272 6.0405744,6.767579 10.7890624,6.767579 6.620184,0 11.988281,-5.366145 11.988281,-11.986329 0,-6.620183 -5.258722,-7.8144526 -11.878906,-7.8144526 z"/>
  <path style="fill:#80cbc4;fill-rule:evenodd" d="m 24.237437,20.474579 c 0,0 5.912377,8.61138 5.280262,9.422421 -0.613835,0.787499 -12.111773,-3.51282 -12.111773,-3.51282 z"/>
 </g>
 <path style="fill:#009688;fill-rule:evenodd" d="m 27.973806,10.054161 c -13.240368,0 -23.9738061,10.733438 -23.9738061,23.973806 0,0.09022 0.01278,0.1772 0.01378,0.267172 -0.00113,0.09452 -0.01378,0.186148 -0.01378,0.280942 0,1.263978 0.102138,2.504826 0.2947146,3.715612 0.061956,0.294078 0.162236,0.54474 0.2451366,0.815282 1.1688988,3.814708 4.2141458,5.348938 4.2141458,5.348938 0.7387904,0.596814 1.6581851,1.205364 2.7185371,1.806848 h -0.08814 c 0,0 2.224113,11.849718 6.301938,11.74924 3.08412,-0.07602 5.504248,-6.123266 9.425364,-6 3.917714,0.12318 5.507586,5.959284 9.406082,6 2.251464,0.02352 4.246276,-2.85815 5.48222,-6 h 1.128208 c 3.70676,3.450506 12.13326,6.692828 15.784516,7.88345 0.0499,-0.02606 0.09058,-0.05514 0.11844,-0.0909 0.893726,-1.146514 -5.41012,-11.564372 -8.901408,-16.63493 1.16455,-2.818838 1.81786,-5.90218 1.81786,-9.141656 0,-13.240368 -10.733438,-23.973806 -23.973806,-23.973806 z"/>
 <circle style="opacity:0.2" cx="17" cy="28.012" r="3"/>
 <circle style="fill:#ffffff" cx="17" cy="27.012" r="3"/>
 <path style="fill:#ffffff;fill-rule:evenodd;opacity:0.1" d="M 27.974609 10.054688 C 14.734241 10.054688 4 20.786976 4 34.027344 C 4 34.117564 4.0126719 34.20495 4.0136719 34.294922 C 4.0125419 34.389442 4 34.481378 4 34.576172 C 4 34.635371 4.0073656 34.692857 4.0078125 34.751953 C 4.1560485 21.639015 14.826559 11.052734 27.974609 11.052734 C 41.050657 11.052734 51.673689 21.523766 51.935547 34.537109 C 51.939167 34.366985 51.947266 34.198354 51.947266 34.027344 C 51.947266 20.786976 41.214977 10.054688 27.974609 10.054688 z M 50.375 43.535156 C 50.294324 43.747049 50.215262 43.960894 50.128906 44.169922 C 53.138232 48.540504 58.227759 56.869712 59.005859 59.824219 C 59.012986 59.817122 59.025269 59.812364 59.03125 59.804688 C 59.905721 58.682875 53.905103 48.715278 50.375 43.535156 z"/>
</svg>

<svg xmlns="http://www.w3.org/2000/svg" width="64" height="64" version="1"><path style="opacity:.2;fill-rule:evenodd" d="M57.79 59.868s2.742-4.982 2.117-6.047c-.549-.937-5.592-.707-5.592-.707s4.27-5.178 3.593-6.33C57.242 45.649 50 45.01 50 45.01s7.905-2.642 8.132-3.942c.238-1.361-7.08-6.282-7.08-6.282s5.434-9.059 4.924-10.267c-.64-1.517-8.375-1.509-8.375-1.509s3.425-10.972 2.014-11.866c-1.185-.75-14.313 3.322-14.313 3.322s-3.934-9.456-6.124-9.456c-2.204 0-6.861 9.47-6.861 9.47s-7.93-6.273-9.362-5.46c-1.265.72-.694 10.993-.694 10.993z"/><path style="opacity:.2" d="M28.191 19.399c-4.234 0-8.084.254-11.37 1.02C9.643 20.832 4.03 34.394 4 36.39c.005 3.243.84 6.407 2.395 9.074C10.276 53.474 18.475 59 27.973 59a23.84 23.84 0 0 0 12.132-3.32c6.846 2.43 18.074 6.224 18.93 5.125.988-1.268-5.851-11.81-8.96-16.469a23.892 23.892 0 0 0 1.874-9.308c0-13.24-10.517-15.63-23.758-15.63z"/><path style="fill:#455a64;fill-rule:evenodd" d="M57.79 58.869s2.742-4.982 2.117-6.047c-.549-.937-5.592-.708-5.592-.708s4.27-5.177 3.593-6.33C57.242 44.65 50 44.012 50 44.012s7.905-2.643 8.132-3.942c.238-1.362-7.08-6.282-7.08-6.282s5.434-9.059 4.924-10.268c-.64-1.517-8.375-1.508-8.375-1.508s3.425-10.973 2.014-11.866c-1.185-.75-14.313 3.322-14.313 3.322s-3.934-9.456-6.124-9.456c-2.204 0-6.861 9.47-6.861 9.47s-7.93-6.274-9.362-5.46c-1.265.72-.694 10.993-.694 10.993z"/><path style="fill:#fff;fill-rule:evenodd;opacity:.1" d="M29.178 4.012c-2.204 0-6.862 9.47-6.862 9.47s-7.93-6.274-9.36-5.46c-.686.389-.823 3.516-.813 6.359.03-2.524.212-5.018.812-5.36 1.431-.813 9.361 5.46 9.361 5.46s4.658-9.47 6.862-9.47c2.19 0 6.125 9.456 6.125 9.456s13.127-4.07 14.312-3.32c.174.11.272.374.315.75.058-.9-.015-1.56-.315-1.75-1.185-.75-14.312 3.322-14.312 3.322s-3.935-9.457-6.125-9.457zm18.718 18.006c-.117.39-.294.994-.294.994s7.257-.005 8.279 1.379c.115-.398.163-.711.096-.871-.601-1.425-7.251-1.498-8.08-1.502zm3.573 12.058-.418.711s5.64 3.792 6.855 5.639c.118-.126.208-.247.227-.356.216-1.237-5.56-5.24-6.664-5.994zm.613 10.18c-1.145.425-2.082.756-2.082.756s6.964.614 7.85 1.71c.137-.402.177-.734.058-.937-.438-.747-3.63-1.253-5.826-1.53zm3.03 7.838c-.456.593-.798 1.02-.798 1.02s5.045-.23 5.594.706l.004.012c.085-.43.116-.805-.004-1.01-.412-.702-3.353-.749-4.797-.728z"/><path style="fill:#80cbc4" d="M14.096 9.193c-2.117 0-4.043.128-5.686.51C4.822 9.911 2 17 2 17.69c.003 1.622.42 3.204 1.197 4.538 1.941 4.004 6.04 6.767 10.79 6.767 6.62 0 11.988-5.366 11.988-11.986 0-6.62-5.26-7.815-11.88-7.815z" transform="matrix(2 0 0 2 0 .012)"/><path style="fill:#80cbc4;fill-rule:evenodd" d="M24.237 20.475s5.913 8.611 5.28 9.422c-.613.787-12.111-3.513-12.111-3.513z" transform="matrix(2 0 0 2 0 .012)"/><path style="fill:#009688;fill-rule:evenodd" d="M27.974 10.054C14.734 10.054 4 20.788 4 34.028c0 .09.013.177.014.267-.001.095-.014.186-.014.281 0 1.264.102 2.505.295 3.716.062.294.162.544.245.815 1.169 3.815 4.214 5.349 4.214 5.349.739.597 1.658 1.205 2.719 1.807h-.089s2.225 11.85 6.302 11.749c3.084-.076 5.505-6.123 9.426-6 3.917.123 5.507 5.96 9.406 6 2.251.024 4.246-2.858 5.482-6h1.128c3.707 3.45 12.133 6.693 15.785 7.883a.355.355 0 0 0 .118-.09c.894-1.147-5.41-11.565-8.901-16.635a23.879 23.879 0 0 0 1.818-9.142c0-13.24-10.734-23.974-23.974-23.974z"/><circle style="opacity:.2" cx="17" cy="28.012" r="3"/><circle style="fill:#fff" cx="17" cy="27.012" r="3"/><path style="fill:#fff;fill-rule:evenodd;opacity:.1" d="M27.975 10.055C14.735 10.055 4 20.787 4 34.027c0 .09.013.178.014.268-.001.094-.014.186-.014.281 0 .06.007.117.008.176.148-13.113 10.819-23.7 23.967-23.7 13.076 0 23.699 10.472 23.96 23.485.004-.17.012-.339.012-.51 0-13.24-10.732-23.972-23.972-23.972zm22.4 33.48c-.08.212-.16.426-.246.635 3.01 4.37 8.099 12.7 8.877 15.654.007-.007.02-.012.025-.02.875-1.121-5.126-11.089-8.656-16.269z"/></svg>
